X:1
T:To celebrate thy praise, O Lord
T:Joseph Stephenson
T:Text: Tate/Brady, on Ps. 9.
T:This edition by Edmund Gooch released into the public domain, January 2011. As such, it may be freely copied and performed.
T:To celebrate thy praise, O Lord
T:Ps. 9th. (A 4 Voce)
C:Joseph Stephenson
Z:Text: Tate/Brady, on Ps. 9.
%%score [ 1 2 3 4 ]
L:1/8
M:3/2
K:C
V:1 treble nm="SOPRANO" snm="S."
V:2 treble nm="ALTO" snm="A."
V:3 treble-8 transpose=-12 nm="TENOR" snm="T."
V:4 bass nm="BASS" snm="B."
V:1
 c4 | (A4 B4) c4 | B8 A4 | (B6 A2) ^G4 | A8 A4 | B8 A4 | F8 A4 | ^G8 G4 | A8 d4 | c8 B4 | A8 A4 | %11
w: Thou|mad'st _ my|haugh- ty|foes _ to|turn Their|backs in|shame- ful|flight; Struck|with thy|pre- sence,|down they|
w: To|ce- * le-|brate thy|praise, _ O|Lord, I|will my|heart pre-|pare; To|all the|list- 'ning|world thy|
w: The|thought _ of|them shall|to _ my|soul Ex-|alt- ed|plea- sure|bring; Whilst|to thy|name, O|thou most|
 B8 c4 | B8 A4 | (B6 A2) ^G4 | A8 |] %15
w: fell, They|pe- rish'd|at _ thy|sight.|
w: works, Thy|wond- rous|works, _ de-|clare.|
w: high, Tri-|um- phant|praise _ I|sing.|
V:2
 E4 | E8 E4 | G8 A4 | F4 E8 | E8 E4 | G8 F4 | (A3 G F4) E4 | E8 E4 | E8 G4 | G8 G4 | E8 A4 | %11
w: Thou|mad'st my|haugh- ty|foes to|turn Their|backs in|shame- * * ful|flight; Struck|with thy|pre- sence,|down they|
w: To|ce- le-|brate thy|praise, O|Lord, I|will my|heart _ _ pre-|pare; To|all the|list- 'ning|world thy|
w: The|thought of|them shall|to my|soul Ex-|alt- ed|plea- * * sure|bring; Whilst|to thy|name, O|thou most|
 ^G8 =G4 | G8 E4 | F4 E8 | E8 |] %15
w: fell, They|pe- rish'd|at thy|sight.|
w: works, Thy|wond- rous|works, de-|clare.|
w: high, Tri-|um- phant|praise I|sing.|
V:3
 E4 | (A4 ^G4) A4 | e8 c4 | (d6 c2) B4 | A8 (c3 d) | e8 c4 | d8 c4 | B8 B4 | A8 B4 | e8 d4 | %10
w: Thou|mad'st _ my|haugh- ty|foes _ to|turn Their _|backs in|shame- ful|flight; Struck|with thy|pre- sence,|
w: To|ce- * le-|brate thy|praise, _ O|Lord, I _|will my|heart pre-|pare; To|all the|list- 'ning|
w: The|thought _ of|them shall|to _ my|soul Ex- *|alt- ed|plea- sure|bring; Whilst|to thy|name, O|
 c8 d4 | e8 e4 | d8 c4 | (d6 c2) B4 | A8 |] %15
w: down they|fell, They|pe- rish'd|at _ thy|sight.|
w: world thy|works, Thy|wond- rous|works, _ de-|clare.|
w: thou most|high, Tri-|um- phant|praise _ I|sing.|
V:4
 A,,4 | (A,,4 E,4) A,4 | E,8 F,4 | D,4 E,8 | A,,8 A,4 | E,8 F,4 | D,8 A,,4 | %7
w: Thou|mad'st _ my|haugh- ty|foes to|turn Their|backs in|shame- ful|
w: To|ce- * le-|brate thy|praise, O|Lord, I|will my|heart pre-|
w: The|thought _ of|them shall|to my|soul Ex-|alt- ed|plea- sure|
"^Emendations:The alto part is printed in the alto clef in the source.The only indication of text in the source is the title 'Ps. 9th' and the opening words 'To Cellebrate &c.': the first fourverses of the text have been underlaid editorially.The alto G on beat 3 of bar 11 does not have a natural in the source, but the tune is printed with a double barlineseparating beats 2 and 3 of this bar (i.e. separating the third and fourth lines of the tune): furthermore, there areexamples elsewhere in Church Harmony of accidentals being repeated where they apply to more than one instanceof the same note within a single bar, indicating that the accidentals only apply to the notes they immediately precede." E,8 E,4 | %8
w: flight; Struck|
w: pare; To|
w: bring; Whilst|
 A,8 G,4 | C,8 G,4 | A,8 F,4 | E,8 C,4 | G,8 A,4 | D,4 E,8 | A,,8 |] %15
w: with thy|pre- sence,|down they|fell, They|pe- rish'd|at thy|sight.|
w: all the|list- 'ning|world thy|works, Thy|wond- rous|works, de-|clare.|
w: to thy|name, O|thou most|high, Tri-|um- phant|praise I|sing.|

